X:1
T:Anglais efter Per Nilsson Dahlberg
T:(SvL Skne nr. 184)
S:efter Per Nilsson Dahlberg
S:Svenska Ltar
R:Anglais
Z:Patrik Mnsson, 2009-01-03
O:Nym, Skne
D:Inspelad som lt nr. 2 p skivan "Skne runt p 75 minuter"
M:2/4
L:1/16
K:Bb
(G4 G)ABc | (d4 d)=e^fg | b4 (ag)(^fg) | a2B2 g4 :|
|: f2fe (df)ba | g2gf (ed)cB | AFAc (ed)cA | B2d2 B2 z2 :|
